Newaita-dark/apps/24/tranquil.svg

<svg height="24pt" viewBox="0 0 24 24" width="24pt" xmlns="http://www.w3.org/2000/svg" xmlns:xlink="http://www.w3.org/1999/xlink"><linearGradient id="a"><stop offset="0" stop-opacity=".313725"/><stop offset=".222222" stop-opacity=".27451"/><stop offset="1" stop-opacity="0"/></linearGradient><radialGradient id="b" cx="450.90894" cy="189.57936" gradientTransform="matrix(.00000013 -.0585994 -.105479 -.00000008 33.392364 47.696499)" gradientUnits="userSpaceOnUse" r="21.166656" xlink:href="#a"/><radialGradient id="c" cx="450.90894" cy="189.57936" gradientTransform="matrix(-.00000013 .0585994 .105479 .00000008 -9.57759 -5.645611)" gradientUnits="userSpaceOnUse" r="21.166656" xlink:href="#a"/><radialGradient id="d" cx="450.90894" cy="189.57936" gradientTransform="matrix(-.00000013 -.0585994 .105479 -.00000008 -9.57759 47.696499)" gradientUnits="userSpaceOnUse" r="21.166656" xlink:href="#a"/><radialGradient id="e" cx="450.90894" cy="189.57936" gradientTransform="matrix(.00000013 .0585994 -.105479 .00000008 33.392363 -5.645611)" gradientUnits="userSpaceOnUse" r="21.166656" xlink:href="#a"/><linearGradient id="f" gradientTransform="matrix(.01002 0 0 .0468795 9.349039 10.079088)" gradientUnits="userSpaceOnUse" x1="255.32306" x2="255.32304" y1="233.5" y2="254.66666"><stop offset="0" stop-opacity=".27451"/><stop offset="1" stop-opacity="0"/></linearGradient><linearGradient id="g" gradientUnits="userSpaceOnUse" x1="254" x2="254" y1="-168.66667" y2="233.5"><stop offset="0" stop-color="#ba68c8"/><stop offset="1" stop-color="#ab47bc"/></linearGradient><linearGradient id="h" gradientUnits="userSpaceOnUse" x1="11.907393" x2="11.907393" y1="21.02545025" y2="2.17207784373"><stop offset="0" stop-color="#ef9a9a"/><stop offset="1" stop-color="#ffcdd2"/></linearGradient><linearGradient id="i" gradientUnits="userSpaceOnUse" x1="11.90736" x2="11.90736" y1="21.0253985937" y2="2.17207772546"><stop offset="0" stop-color="#ec407a"/><stop offset="1" stop-color="#f06292"/></linearGradient><linearGradient id="j" gradientUnits="userSpaceOnUse" x1="11.90736" x2="11.90736" y1="21.0253985937" y2="2.17207772546"><stop offset="0" stop-color="#795548"/><stop offset="1" stop-color="#8d6e63"/></linearGradient><path d="m13.644531 21.027344h1.984375v-.996094h-1.984375zm0 0" fill="url(#b)"/><path d="m10.171875 21.027344h-1.984375v.992187h1.984375zm0 0" fill="url(#c)"/><path d="m10.171875 21.027344h-1.984375v-.996094h1.984375zm0 0" fill="url(#d)"/><path d="m13.644531 21.027344h1.984375v.992187h-1.984375zm0 0" fill="url(#e)"/><path d="m10.171875 20.777344h3.472656v1.242187h-3.472656zm0 0" fill="url(#f)"/><path d="m253.975747-168.671091c111.072726 0 201.147458 89.991406 201.147458 201.064133 0 111.072726-90.074732 201.147458-201.147458 201.147458-110.989402 0-201.064133-90.074732-201.064133-201.147458 0-111.072727 90.074731-201.064133 201.064133-201.064133zm0 0" fill="url(#g)" stroke="#333" stroke-linecap="round" stroke-width="3" transform="matrix(.0468795 0 0 .0468795 0 10.079087)"/><path d="m11.90625 6.140625c3.015625 0 5.457031 2.445313 5.457031 5.457031 0 3.015625-2.441406 5.457032-5.457031 5.457032-3.011719 0-5.457031-2.441407-5.457031-5.457032 0-3.011718 2.445312-5.457031 5.457031-5.457031zm0 0" fill="url(#h)"/><path d="m11.90625 6.140625c-3.023438 0-5.457031 2.433594-5.457031 5.457031 0 .0625 0 .125.003906.1875.097656-2.9375 2.492187-5.273437 5.453125-5.273437s5.359375 2.335937 5.457031 5.273437c0-.0625 0-.125 0-.1875 0-3.023437-2.433593-5.457031-5.457031-5.457031zm0 0" fill="#fff" fill-opacity=".392157"/><path d="m253.975747-84.012509c64.32719 0 116.40555 52.161686 116.40555 116.405551 0 64.32719-52.07836 116.40555-116.40555 116.40555-64.243865 0-116.405551-52.07836-116.405551-116.40555 0-64.243865 52.161686-116.405551 116.405551-116.405551zm0 0" fill="none" stroke="#212121" stroke-linecap="round" stroke-width="3" transform="matrix(.0468795 0 0 .0468795 0 10.079087)"/><path d="m7.300781 15.085938 3.117188 4.371093s1.675781.730469 3.3125 1.394531c3.179687-.621093 5.777343-2.824218 6.941406-5.765624zm0 0" fill="url(#i)"/><path d="m7.300781 15.085938.234375.328124h13c.046875-.105468.09375-.214843.136719-.328124zm0 0" fill="#fff" fill-opacity=".392157"/><path d="m588.605216 1216.261821 251.314586 352.407296s135.10521 58.892015 267.061115 112.43021c256.353475-50.073959 465.782297-227.694795 559.631604-464.837506zm0 0" fill="none" stroke="#212121" stroke-width="12.765609" transform="scale(.0124035)"/><path d="m2.910156 8.765625c-.277344.890625-.429687 1.84375-.429687 2.832031 0 5.222656 4.203125 9.429688 9.425781 9.429688 2.316406 0 4.429688-.828125 6.066406-2.203125-.789062-.097657-1.417968-.269531-3.230468-.269531-1.015626 0-3.691407.902343-4.6875-.996094-.777344-1.503906-2.183594-2.707032-3.339844-3.007813-.984375-.253906-1.25-1.207031-1.332032-2.34375-.09375-1.203125-1.058593-1.238281-1.675781-2.011719-.414062-.539062-.519531-1.113281-.796875-1.429687zm0 0" fill="url(#j)"/><path d="m11.90625 21.027344c-5.222656 0-9.425781-4.207032-9.425781-9.429688 0-.03125 0-.058594 0-.089844.050781 5.179688 4.234375 9.332032 9.425781 9.332032s9.378906-4.152344 9.425781-9.332032c0 .03125.003907.058594.003907.089844 0 5.222656-4.207032 9.429688-9.429688 9.429688zm0 0" fill-opacity=".196078"/><path d="m11.90625 2.171875c-5.222656 0-9.425781 4.203125-9.425781 9.425781v.09375c.050781-5.179687 4.234375-9.335937 9.425781-9.335937s9.378906 4.15625 9.425781 9.335937c0-.03125.003907-.0625.003907-.09375 0-5.222656-4.207032-9.425781-9.429688-9.425781zm0 0" fill="#fff" fill-opacity=".392157"/><path d="m2.910156 8.765625c-.277344.890625-.429687 1.84375-.429687 2.832031v.152344c.015625-.933594.164062-1.832031.429687-2.679688.277344.316407.382813.894532.796875 1.429688.617188.777344 1.582031.808594 1.675781 2.011719.082032 1.140625.347657 2.089843 1.332032 2.34375 1.15625.300781 2.5625 1.503906 3.339844 3.007812.996093 1.898438 3.671874.996094 4.6875.996094 1.558593 0 2.242187.128906 2.90625.226563.109374-.085938.21875-.171876.324218-.261719-.789062-.097657-1.417968-.269531-3.230468-.269531-1.015626 0-3.691407.902343-4.6875-.996094-.777344-1.503906-2.183594-2.707032-3.339844-3.007813-.984375-.253906-1.25-1.207031-1.332032-2.34375-.09375-1.203125-1.058593-1.238281-1.675781-2.011719-.414062-.539062-.519531-1.113281-.796875-1.429687zm0 0" fill="#fff" fill-opacity=".392157"/><path d="m11.90625 2.101562c-5.257812 0-9.496094 4.238282-9.496094 9.496094 0 5.261719 4.238282 9.5 9.496094 9.5 5.261719 0 9.5-4.238281 9.5-9.5 0-5.257812-4.238281-9.496094-9.5-9.496094zm0 .140626c5.1875 0 9.359375 4.171874 9.359375 9.355468 0 5.1875-4.171875 9.359375-9.359375 9.359375-5.183594 0-9.355469-4.171875-9.355469-9.359375 0-5.183594 4.171875-9.355468 9.355469-9.355468zm0 0" fill="#212121"/><path d="m2.976562 8.375c-.160156.503906-.277343 1.03125-.351562 1.570312.070312-.402343.167969-.796874.285156-1.179687.277344.316406.382813.890625.796875 1.429687.617188.773438 1.582031.808594 1.675781 2.011719.082032 1.136719.347657 2.089844 1.332032 2.34375 1.15625.300781 2.5625 1.503907 3.339844 3.007813.996093 1.898437 3.671874.996094 4.6875.996094 1.8125 0 2.441406.171874 3.230468.269531-.003906.007812-.011718.011719-.019531.019531.136719-.105469.273437-.210938.402344-.320312-.804688-.097657-1.449219-.269532-3.296875-.269532-1.035156 0-3.769532.910156-4.789063-1.007812-.789062-1.519532-2.230469-2.730469-3.410156-3.035156-1.003906-.257813-1.277344-1.214844-1.359375-2.363282-.09375-1.214844-1.082031-1.246094-1.710938-2.03125-.421874-.539062-.53125-1.125-.8125-1.441406zm0 0" fill-opacity=".235294"/><path d="m234.623267 706.704176c-22.36007 71.804167-34.642362 148.647224-34.642362 228.324655 0 421.062158 338.865282 760.242371 759.92744 760.242371 186.753822 0 357.131255-66.765279 489.087159-177.620836-63.615973-7.873264-114.319793-21.730208-260.447572-21.730208-81.881946 0-297.609379 72.748959-377.916672-80.307293-62.671181-121.248265-176.046183-218.246878-269.265628-242.496531-79.362501-20.470486-100.777779-97.313543-107.391321-188.958335-7.558333-96.998613-85.346182-99.832988-135.10521-162.189239-33.382639-43.460417-41.885764-89.755209-64.245834-115.264584zm0 0" fill="none" stroke="#212121" stroke-width="12.765609" transform="scale(.0124035)"/><path d="m7.492188 14.8125c.082031.113281.167968.222656.257812.328125h8.316406c.089844-.105469.175782-.214844.257813-.328125zm0 0" fill-opacity=".235294"/></svg>

<?xml version="1.0" encoding="UTF-8"?>
<svg xmlns="http://www.w3.org/2000/svg" xmlns:xlink="http://www.w3.org/1999/xlink" width="24pt" height="24pt" viewBox="0 0 24 24" version="1.1">
<defs>
<radialGradient id="radial0" gradientUnits="userSpaceOnUse" cx="450.90894" cy="189.57936" fx="450.90894" fy="189.57936" r="21.166656" gradientTransform="matrix(0.000000130628,-0.0585994,-0.105479,-0.0000000761539,33.392364,47.696499)">
<stop offset="0" style="stop-color:rgb(0%,0%,0%);stop-opacity:0.313725;"/>
<stop offset="0.222222" style="stop-color:rgb(0%,0%,0%);stop-opacity:0.27451;"/>
<stop offset="1" style="stop-color:rgb(0%,0%,0%);stop-opacity:0;"/>
</radialGradient>
<radialGradient id="radial1" gradientUnits="userSpaceOnUse" cx="450.90894" cy="189.57936" fx="450.90894" fy="189.57936" r="21.166656" gradientTransform="matrix(-0.000000130628,0.0585994,0.105479,0.0000000761539,-9.57759,-5.645611)">
<stop offset="0" style="stop-color:rgb(0%,0%,0%);stop-opacity:0.313725;"/>
<stop offset="0.222222" style="stop-color:rgb(0%,0%,0%);stop-opacity:0.27451;"/>
<stop offset="1" style="stop-color:rgb(0%,0%,0%);stop-opacity:0;"/>
</radialGradient>
<radialGradient id="radial2" gradientUnits="userSpaceOnUse" cx="450.90894" cy="189.57936" fx="450.90894" fy="189.57936" r="21.166656" gradientTransform="matrix(-0.000000130628,-0.0585994,0.105479,-0.0000000761539,-9.57759,47.696499)">
<stop offset="0" style="stop-color:rgb(0%,0%,0%);stop-opacity:0.313725;"/>
<stop offset="0.222222" style="stop-color:rgb(0%,0%,0%);stop-opacity:0.27451;"/>
<stop offset="1" style="stop-color:rgb(0%,0%,0%);stop-opacity:0;"/>
</radialGradient>
<radialGradient id="radial3" gradientUnits="userSpaceOnUse" cx="450.90894" cy="189.57936" fx="450.90894" fy="189.57936" r="21.166656" gradientTransform="matrix(0.000000130628,0.0585994,-0.105479,0.0000000761539,33.392363,-5.645611)">
<stop offset="0" style="stop-color:rgb(0%,0%,0%);stop-opacity:0.313725;"/>
<stop offset="0.222222" style="stop-color:rgb(0%,0%,0%);stop-opacity:0.27451;"/>
<stop offset="1" style="stop-color:rgb(0%,0%,0%);stop-opacity:0;"/>
</radialGradient>
<linearGradient id="linear0" gradientUnits="userSpaceOnUse" x1="255.32306" y1="233.5" x2="255.32304" y2="254.66666" gradientTransform="matrix(0.01002,0,0,0.0468795,9.349039,10.079088)">
<stop offset="0" style="stop-color:rgb(0%,0%,0%);stop-opacity:0.27451;"/>
<stop offset="1" style="stop-color:rgb(0%,0%,0%);stop-opacity:0;"/>
</linearGradient>
<linearGradient id="linear1" gradientUnits="userSpaceOnUse" x1="254" y1="-168.66667" x2="254" y2="233.5" gradientTransform="matrix(1,0,0,1,0,0)">
<stop offset="0" style="stop-color:rgb(72.941176%,40.784314%,78.431373%);stop-opacity:1;"/>
<stop offset="1" style="stop-color:rgb(67.058824%,27.843137%,73.72549%);stop-opacity:1;"/>
</linearGradient>
<linearGradient id="linear2" gradientUnits="userSpaceOnUse" x1="254" y1="233.5" x2="254" y2="-168.66667" gradientTransform="matrix(0.0468795,0,0,0.0468795,0,10.079087)">
<stop offset="0" style="stop-color:rgb(93.72549%,60.392157%,60.392157%);stop-opacity:1;"/>
<stop offset="1" style="stop-color:rgb(100%,80.392157%,82.352941%);stop-opacity:1;"/>
</linearGradient>
<linearGradient id="linear3" gradientUnits="userSpaceOnUse" x1="960" y1="1695.1182" x2="960" y2="175.11813" gradientTransform="matrix(0.0124035,0,0,0.0124035,0,0)">
<stop offset="0" style="stop-color:rgb(92.54902%,25.098039%,47.843137%);stop-opacity:1;"/>
<stop offset="1" style="stop-color:rgb(94.117647%,38.431373%,57.254902%);stop-opacity:1;"/>
</linearGradient>
<linearGradient id="linear4" gradientUnits="userSpaceOnUse" x1="960" y1="1695.1182" x2="960" y2="175.11813" gradientTransform="matrix(0.0124035,0,0,0.0124035,0,0)">
<stop offset="0" style="stop-color:rgb(47.45098%,33.333333%,28.235294%);stop-opacity:1;"/>
<stop offset="1" style="stop-color:rgb(55.294118%,43.137255%,38.823529%);stop-opacity:1;"/>
</linearGradient>
</defs>
<g id="surface1">
<path style=" stroke:none;fill-rule:nonzero;fill:url(#radial0);" d="M 13.644531 21.027344 L 15.628906 21.027344 L 15.628906 20.03125 L 13.644531 20.03125 Z M 13.644531 21.027344 "/>
<path style=" stroke:none;fill-rule:nonzero;fill:url(#radial1);" d="M 10.171875 21.027344 L 8.1875 21.027344 L 8.1875 22.019531 L 10.171875 22.019531 Z M 10.171875 21.027344 "/>
<path style=" stroke:none;fill-rule:nonzero;fill:url(#radial2);" d="M 10.171875 21.027344 L 8.1875 21.027344 L 8.1875 20.03125 L 10.171875 20.03125 Z M 10.171875 21.027344 "/>
<path style=" stroke:none;fill-rule:nonzero;fill:url(#radial3);" d="M 13.644531 21.027344 L 15.628906 21.027344 L 15.628906 22.019531 L 13.644531 22.019531 Z M 13.644531 21.027344 "/>
<path style=" stroke:none;fill-rule:nonzero;fill:url(#linear0);" d="M 10.171875 20.777344 L 13.644531 20.777344 L 13.644531 22.019531 L 10.171875 22.019531 Z M 10.171875 20.777344 "/>
<path style="fill-rule:nonzero;fill:url(#linear1);stroke-width:3;stroke-linecap:round;stroke-linejoin:miter;stroke:rgb(20%,20%,20%);stroke-opacity:1;stroke-miterlimit:4;" d="M 253.975747 -168.671091 C 365.048473 -168.671091 455.123205 -78.679685 455.123205 32.393042 C 455.123205 143.465768 365.048473 233.5405 253.975747 233.5405 C 142.986345 233.5405 52.911614 143.465768 52.911614 32.393042 C 52.911614 -78.679685 142.986345 -168.671091 253.975747 -168.671091 Z M 253.975747 -168.671091 " transform="matrix(0.0468795,0,0,0.0468795,0,10.079087)"/>
<path style=" stroke:none;fill-rule:nonzero;fill:url(#linear2);" d="M 11.90625 6.140625 C 14.921875 6.140625 17.363281 8.585938 17.363281 11.597656 C 17.363281 14.613281 14.921875 17.054688 11.90625 17.054688 C 8.894531 17.054688 6.449219 14.613281 6.449219 11.597656 C 6.449219 8.585938 8.894531 6.140625 11.90625 6.140625 Z M 11.90625 6.140625 "/>
<path style=" stroke:none;fill-rule:nonzero;fill:rgb(100%,100%,100%);fill-opacity:0.392157;" d="M 11.90625 6.140625 C 8.882812 6.140625 6.449219 8.574219 6.449219 11.597656 C 6.449219 11.660156 6.449219 11.722656 6.453125 11.785156 C 6.550781 8.847656 8.945312 6.511719 11.90625 6.511719 C 14.867188 6.511719 17.265625 8.847656 17.363281 11.785156 C 17.363281 11.722656 17.363281 11.660156 17.363281 11.597656 C 17.363281 8.574219 14.929688 6.140625 11.90625 6.140625 Z M 11.90625 6.140625 "/>
<path style="fill:none;stroke-width:3;stroke-linecap:round;stroke-linejoin:miter;stroke:rgb(12.941176%,12.941176%,12.941176%);stroke-opacity:1;stroke-miterlimit:4;" d="M 253.975747 -84.012509 C 318.302937 -84.012509 370.381297 -31.850823 370.381297 32.393042 C 370.381297 96.720232 318.302937 148.798592 253.975747 148.798592 C 189.731882 148.798592 137.570196 96.720232 137.570196 32.393042 C 137.570196 -31.850823 189.731882 -84.012509 253.975747 -84.012509 Z M 253.975747 -84.012509 " transform="matrix(0.0468795,0,0,0.0468795,0,10.079087)"/>
<path style=" stroke:none;fill-rule:nonzero;fill:url(#linear3);" d="M 7.300781 15.085938 L 10.417969 19.457031 C 10.417969 19.457031 12.09375 20.1875 13.730469 20.851562 C 16.910156 20.230469 19.507812 18.027344 20.671875 15.085938 Z M 7.300781 15.085938 "/>
<path style=" stroke:none;fill-rule:nonzero;fill:rgb(100%,100%,100%);fill-opacity:0.392157;" d="M 7.300781 15.085938 L 7.535156 15.414062 L 20.535156 15.414062 C 20.582031 15.308594 20.628906 15.199219 20.671875 15.085938 Z M 7.300781 15.085938 "/>
<path style="fill:none;stroke-width:12.765609;stroke-linecap:butt;stroke-linejoin:miter;stroke:rgb(12.941176%,12.941176%,12.941176%);stroke-opacity:1;stroke-miterlimit:4;" d="M 588.605216 1216.261821 L 839.919802 1568.669117 C 839.919802 1568.669117 975.025012 1627.561132 1106.980917 1681.099327 C 1363.334392 1631.025368 1572.763214 1453.404532 1666.612521 1216.261821 Z M 588.605216 1216.261821 " transform="matrix(0.0124035,0,0,0.0124035,0,0)"/>
<path style=" stroke:none;fill-rule:nonzero;fill:url(#linear4);" d="M 2.910156 8.765625 C 2.632812 9.65625 2.480469 10.609375 2.480469 11.597656 C 2.480469 16.820312 6.683594 21.027344 11.90625 21.027344 C 14.222656 21.027344 16.335938 20.199219 17.972656 18.824219 C 17.183594 18.726562 16.554688 18.554688 14.742188 18.554688 C 13.726562 18.554688 11.050781 19.457031 10.054688 17.558594 C 9.277344 16.054688 7.871094 14.851562 6.714844 14.550781 C 5.730469 14.296875 5.464844 13.34375 5.382812 12.207031 C 5.289062 11.003906 4.324219 10.96875 3.707031 10.195312 C 3.292969 9.65625 3.1875 9.082031 2.910156 8.765625 Z M 2.910156 8.765625 "/>
<path style=" stroke:none;fill-rule:nonzero;fill:rgb(0%,0%,0%);fill-opacity:0.196078;" d="M 11.90625 21.027344 C 6.683594 21.027344 2.480469 16.820312 2.480469 11.597656 C 2.480469 11.566406 2.480469 11.539062 2.480469 11.507812 C 2.53125 16.6875 6.714844 20.839844 11.90625 20.839844 C 17.097656 20.839844 21.285156 16.6875 21.332031 11.507812 C 21.332031 11.539062 21.335938 11.566406 21.335938 11.597656 C 21.335938 16.820312 17.128906 21.027344 11.90625 21.027344 Z M 11.90625 21.027344 "/>
<path style=" stroke:none;fill-rule:nonzero;fill:rgb(100%,100%,100%);fill-opacity:0.392157;" d="M 11.90625 2.171875 C 6.683594 2.171875 2.480469 6.375 2.480469 11.597656 C 2.480469 11.628906 2.480469 11.660156 2.480469 11.691406 C 2.53125 6.511719 6.714844 2.355469 11.90625 2.355469 C 17.097656 2.355469 21.285156 6.511719 21.332031 11.691406 C 21.332031 11.660156 21.335938 11.628906 21.335938 11.597656 C 21.335938 6.375 17.128906 2.171875 11.90625 2.171875 Z M 11.90625 2.171875 "/>
<path style=" stroke:none;fill-rule:nonzero;fill:rgb(100%,100%,100%);fill-opacity:0.392157;" d="M 2.910156 8.765625 C 2.632812 9.65625 2.480469 10.609375 2.480469 11.597656 C 2.480469 11.648438 2.480469 11.699219 2.480469 11.75 C 2.496094 10.816406 2.644531 9.917969 2.910156 9.070312 C 3.1875 9.386719 3.292969 9.964844 3.707031 10.5 C 4.324219 11.277344 5.289062 11.308594 5.382812 12.511719 C 5.464844 13.652344 5.730469 14.601562 6.714844 14.855469 C 7.871094 15.15625 9.277344 16.359375 10.054688 17.863281 C 11.050781 19.761719 13.726562 18.859375 14.742188 18.859375 C 16.300781 18.859375 16.984375 18.988281 17.648438 19.085938 C 17.757812 19 17.867188 18.914062 17.972656 18.824219 C 17.183594 18.726562 16.554688 18.554688 14.742188 18.554688 C 13.726562 18.554688 11.050781 19.457031 10.054688 17.558594 C 9.277344 16.054688 7.871094 14.851562 6.714844 14.550781 C 5.730469 14.296875 5.464844 13.34375 5.382812 12.207031 C 5.289062 11.003906 4.324219 10.96875 3.707031 10.195312 C 3.292969 9.65625 3.1875 9.082031 2.910156 8.765625 Z M 2.910156 8.765625 "/>
<path style=" stroke:none;fill-rule:nonzero;fill:rgb(12.941176%,12.941176%,12.941176%);fill-opacity:1;" d="M 11.90625 2.101562 C 6.648438 2.101562 2.410156 6.339844 2.410156 11.597656 C 2.410156 16.859375 6.648438 21.097656 11.90625 21.097656 C 17.167969 21.097656 21.40625 16.859375 21.40625 11.597656 C 21.40625 6.339844 17.167969 2.101562 11.90625 2.101562 Z M 11.90625 2.242188 C 17.09375 2.242188 21.265625 6.414062 21.265625 11.597656 C 21.265625 16.785156 17.09375 20.957031 11.90625 20.957031 C 6.722656 20.957031 2.550781 16.785156 2.550781 11.597656 C 2.550781 6.414062 6.722656 2.242188 11.90625 2.242188 Z M 11.90625 2.242188 "/>
<path style=" stroke:none;fill-rule:nonzero;fill:rgb(0%,0%,0%);fill-opacity:0.235294;" d="M 2.976562 8.375 C 2.816406 8.878906 2.699219 9.40625 2.625 9.945312 C 2.695312 9.542969 2.792969 9.148438 2.910156 8.765625 C 3.1875 9.082031 3.292969 9.65625 3.707031 10.195312 C 4.324219 10.96875 5.289062 11.003906 5.382812 12.207031 C 5.464844 13.34375 5.730469 14.296875 6.714844 14.550781 C 7.871094 14.851562 9.277344 16.054688 10.054688 17.558594 C 11.050781 19.457031 13.726562 18.554688 14.742188 18.554688 C 16.554688 18.554688 17.183594 18.726562 17.972656 18.824219 C 17.96875 18.832031 17.960938 18.835938 17.953125 18.84375 C 18.089844 18.738281 18.226562 18.632812 18.355469 18.523438 C 17.550781 18.425781 16.90625 18.253906 15.058594 18.253906 C 14.023438 18.253906 11.289062 19.164062 10.269531 17.246094 C 9.480469 15.726562 8.039062 14.515625 6.859375 14.210938 C 5.855469 13.953125 5.582031 12.996094 5.5 11.847656 C 5.40625 10.632812 4.417969 10.601562 3.789062 9.816406 C 3.367188 9.277344 3.257812 8.691406 2.976562 8.375 Z M 2.976562 8.375 "/>
<path style="fill:none;stroke-width:12.765609;stroke-linecap:butt;stroke-linejoin:miter;stroke:rgb(12.941176%,12.941176%,12.941176%);stroke-opacity:1;stroke-miterlimit:4;" d="M 234.623267 706.704176 C 212.263197 778.508343 199.980905 855.3514 199.980905 935.028831 C 199.980905 1356.090989 538.846187 1695.271202 959.908345 1695.271202 C 1146.662167 1695.271202 1317.0396 1628.505923 1448.995504 1517.650366 C 1385.379531 1509.777102 1334.675711 1495.920158 1188.547932 1495.920158 C 1106.665986 1495.920158 890.938553 1568.669117 810.63126 1415.612865 C 747.960079 1294.3646 634.585077 1197.365987 541.365632 1173.116334 C 462.003131 1152.645848 440.587853 1075.802791 433.974311 984.157999 C 426.415978 887.159386 348.628129 884.325011 298.869101 821.96876 C 265.486462 778.508343 256.983337 732.213551 234.623267 706.704176 Z M 234.623267 706.704176 " transform="matrix(0.0124035,0,0,0.0124035,0,0)"/>
<path style=" stroke:none;fill-rule:nonzero;fill:rgb(0%,0%,0%);fill-opacity:0.235294;" d="M 7.492188 14.8125 C 7.574219 14.925781 7.660156 15.035156 7.75 15.140625 L 16.066406 15.140625 C 16.15625 15.035156 16.242188 14.925781 16.324219 14.8125 Z M 7.492188 14.8125 "/>
</g>
</svg>
